ui/StatusQ/src/assets/img/icons/globe.svg

<svg fill="none" height="14" viewBox="0 0 14 14" width="14" xmlns="http://www.w3.org/2000/svg"><path clip-rule="evenodd" d="m6.99998 13.6667c3.68192 0 6.66662-2.9848 6.66662-6.6667s-2.9847-6.666672-6.66662-6.666672c-3.6819 0-6.666667 2.984772-6.666667 6.666672s2.984767 6.6667 6.666667 6.6667zm5.29212-7.33337c-.2254-1.80754-1.3554-3.33417-2.92253-4.11267.04332.08682.08506.17554.12524.26594.45985 1.03467.75419 2.37738.82299 3.84673zm0 1.33333c-.2254 1.80754-1.3554 3.33414-2.92253 4.11264.04332-.0868.08506-.1755.12524-.2659.45985-1.0347.75419-2.37739.82299-3.84674zm-3.30923-1.33333c-.06779-1.31102-.33217-2.46303-.70648-3.30522-.21866-.49197-.46175-.84883-.69801-1.07368-.23283-.22157-.42713-.28777-.5784-.28777s-.34557.0662-.5784.28777c-.23626.22485-.47936.58171-.69801 1.07368-.37431.84219-.63869 1.9942-.70648 3.30522zm-3.96578 1.33333h3.96578c-.06779 1.31102-.33217 2.46304-.70648 3.30524-.21866.492-.46175.8488-.69801 1.0737-.23283.2215-.42713.2877-.5784.2877s-.34557-.0662-.5784-.2877c-.23626-.2249-.47936-.5817-.69801-1.0737-.37431-.8422-.63869-1.99422-.70648-3.30524zm-1.33493-1.33333c.06878-1.46935.36314-2.81206.82299-3.84673.04018-.0904.08192-.17912.12524-.26594-1.56718.7785-2.69708 2.30513-2.92248 4.11267zm-1.97425 1.33333h1.97425c.06878 1.46935.36314 2.81204.82299 3.84674.04018.0904.08192.1791.12524.2659-1.56718-.7785-2.69708-2.3051-2.92248-4.11264z" fill="#4360df" fill-rule="evenodd"/></svg>

<svg width="14" height="14" viewBox="0 0 14 14" fill="none" xmlns="http://www.w3.org/2000/svg">
<path fill-rule="evenodd" clip-rule="evenodd" d="M6.99998 13.6667C10.6819 13.6667 13.6666 10.6819 13.6666 7C13.6666 3.3181 10.6819 0.333328 6.99998 0.333328C3.31808 0.333328 0.333313 3.3181 0.333313 7C0.333313 10.6819 3.31808 13.6667 6.99998 13.6667ZM12.2921 6.33333C12.0667 4.52579 10.9367 2.99916 9.36957 2.22066C9.41289 2.30748 9.45463 2.3962 9.49481 2.4866C9.95466 3.52127 10.249 4.86398 10.3178 6.33333H12.2921ZM12.2921 7.66666C12.0667 9.4742 10.9367 11.0008 9.36957 11.7793C9.41289 11.6925 9.45463 11.6038 9.49481 11.5134C9.95466 10.4787 10.249 9.13601 10.3178 7.66666H12.2921ZM8.98287 6.33333C8.91508 5.02231 8.6507 3.8703 8.27639 3.02811C8.05773 2.53614 7.81464 2.17928 7.57838 1.95443C7.34555 1.73286 7.15125 1.66666 6.99998 1.66666C6.84871 1.66666 6.65441 1.73286 6.42158 1.95443C6.18532 2.17928 5.94222 2.53614 5.72357 3.02811C5.34926 3.8703 5.08488 5.02231 5.01709 6.33333H8.98287ZM5.01709 7.66666H8.98287C8.91508 8.97768 8.6507 10.1297 8.27639 10.9719C8.05773 11.4639 7.81464 11.8207 7.57838 12.0456C7.34555 12.2671 7.15125 12.3333 6.99998 12.3333C6.84871 12.3333 6.65441 12.2671 6.42158 12.0456C6.18532 11.8207 5.94222 11.4639 5.72357 10.9719C5.34926 10.1297 5.08488 8.97768 5.01709 7.66666ZM3.68216 6.33333C3.75094 4.86398 4.0453 3.52127 4.50515 2.4866C4.54533 2.3962 4.58707 2.30748 4.63039 2.22066C3.06321 2.99916 1.93331 4.52579 1.70791 6.33333H3.68216ZM1.70791 7.66666H3.68216C3.75094 9.13601 4.0453 10.4787 4.50515 11.5134C4.54533 11.6038 4.58707 11.6925 4.63039 11.7793C3.06321 11.0008 1.93331 9.4742 1.70791 7.66666Z" fill="#4360DF"/>
</svg>
